school/img/country/GE.svg

<svg width="13" height="12" viewBox="0 0 13 12" fill="none" xmlns="http://www.w3.org/2000/svg">
<rect x="0.25" y="0.25" width="12.5" height="11.5" rx="1.75" fill="white" stroke="#F5F5F5" stroke-width="0.5"/>
<mask id="mask0" mask-type="alpha" maskUnits="userSpaceOnUse" x="0" y="0" width="13" height="12">
<rect x="0.25" y="0.25" width="12.5" height="11.5" rx="1.75" fill="white" stroke="white" stroke-width="0.5"/>
</mask>
<g mask="url(#mask0)">
<path fill-rule="evenodd" clip-rule="evenodd" d="M7.42858 12.8H5.57144V7.20002H-0.619019V4.80002H5.57144V-0.799988H7.42858V4.80002H13.6191V7.20002H7.42858V12.8Z" fill="#FF2B37"/>
<path fill-rule="evenodd" clip-rule="evenodd" d="M10.0286 2.64003L9.28577 2.80002V2.00002L10.0286 2.16002L9.90479 1.20001H10.5238L10.4 2.16003L11.1429 2.00002V2.80002L10.4 2.64002L10.5238 3.60001H9.90479L10.0286 2.64003Z" fill="#FD0D1B"/>
<path fill-rule="evenodd" clip-rule="evenodd" d="M2.60001 2.64003L1.85718 2.80002V2.00002L2.60001 2.16002L2.4762 1.20001H3.09525L2.97144 2.16003L3.71432 2.00002V2.80002L2.97144 2.64002L3.09525 3.60001H2.4762L2.60001 2.64003Z" fill="#FD0D1B"/>
<path fill-rule="evenodd" clip-rule="evenodd" d="M2.60001 9.84004L1.85718 10V9.20003L2.60001 9.36003L2.4762 8.40002H3.09525L2.97144 9.36004L3.71432 9.20003V10L2.97144 9.84003L3.09525 10.8H2.4762L2.60001 9.84004Z" fill="#FD0D1B"/>
<path fill-rule="evenodd" clip-rule="evenodd" d="M10.0286 9.84004L9.28577 10V9.20003L10.0286 9.36003L9.90479 8.40002H10.5238L10.4 9.36004L11.1429 9.20003V10L10.4 9.84003L10.5238 10.8H9.90479L10.0286 9.84004Z" fill="#FD0D1B"/>
</g>
</svg>

<svg width="13" height="12" fill="none" xmlns="http://www.w3.org/2000/svg"><rect x=".25" y=".25" width="12.5" height="11.5" rx="1.75" fill="#fff" stroke="#F5F5F5" stroke-width=".5"/><mask id="a" maskUnits="userSpaceOnUse" x="0" y="0" width="13" height="12"><rect x=".25" y=".25" width="12.5" height="11.5" rx="1.75" fill="#fff" stroke="#fff" stroke-width=".5"/></mask><g mask="url(#a)" fill-rule="evenodd" clip-rule="evenodd"><path d="M7.429 12.8H5.57V7.2H-.62V4.8h6.19V-.8h1.86v5.6h6.19v2.4H7.43v5.6z" fill="#FF2B37"/><path d="M10.029 2.64l-.743.16V2l.743.16-.124-.96h.619l-.124.96.743-.16v.8l-.743-.16.124.96h-.62l.125-.96zm-7.429 0l-.743.16V2l.743.16-.124-.96h.62l-.125.96.743-.16v.8l-.743-.16.124.96h-.619l.124-.96zm0 7.2l-.743.16v-.8l.743.16-.124-.96h.62l-.125.96.743-.16v.8l-.743-.16.124.96h-.619l.124-.96zm7.429 0l-.743.16v-.8l.743.16-.124-.96h.619l-.124.96.743-.16v.8l-.743-.16.124.96h-.62l.125-.96z" fill="#FD0D1B"/></g></svg>
